src/app/assets/grass.svg

<?xml version="1.0" encoding="UTF-8" standalone="no"?>
<svg
   xml:space="preserve"
   width="65"
   height="65"
   viewBox="0 0 7.9657706 7.9656214"
   version="1.1"
   id="svg1750"
   sodipodi:docname="grass.svg"
   inkscape:version="1.2 (dc2aeda, 2022-05-15)"
   xmlns:inkscape="http://www.inkscape.org/namespaces/inkscape"
   xmlns:sodipodi="http://sodipodi.sourceforge.net/DTD/sodipodi-0.dtd"
   xmlns="http://www.w3.org/2000/svg"
   xmlns:svg="http://www.w3.org/2000/svg"><defs
     id="defs1754" /><sodipodi:namedview
     id="namedview1752"
     pagecolor="#505050"
     bordercolor="#eeeeee"
     borderopacity="1"
     inkscape:showpageshadow="0"
     inkscape:pageopacity="0"
     inkscape:pagecheckerboard="0"
     inkscape:deskcolor="#505050"
     showgrid="false"
     inkscape:zoom="8.508826"
     inkscape:cx="43.778072"
     inkscape:cy="34.37607"
     inkscape:window-width="1440"
     inkscape:window-height="900"
     inkscape:window-x="0"
     inkscape:window-y="0"
     inkscape:window-maximized="0"
     inkscape:current-layer="svg1750" /><g
     id="path1748"><path
       style="color:#000000;fill:#000000;stroke-width:0.12255;stroke-linecap:round;-inkscape-stroke:none"
       d="M 5.8249372,5.300044 C 6.2948288,4.2399418 6.2233848,2.7624562 5.9401695,1.7638092 4.5699298,1.5786754 2.8847219,2.0045087 2.0814249,2.7965127 1.278128,3.5885166 1.2724944,5.1530637 1.9229165,5.8021843 c 0.056848,0 0.4076662,-0.3922891 0.4302005,-0.480887 C 2.432499,4.9981454 2.2199597,3.3321972 2.438389,3.2497448 2.6568182,3.1672924 2.7856222,4.49959 2.8222405,4.8818926 3.1720344,4.5433768 3.6357803,3.9854148 3.6357803,3.9854148 3.6890433,3.8507255 3.5192677,2.8612967 3.7074803,2.720974 3.9328234,2.5532525 3.9881349,3.5895409 4.0495921,3.6054168 4.1328151,3.6468991 5.1522369,2.3432805 5.313306,2.5335356 5.5053598,2.7604077 4.5763316,3.5987591 4.4347239,3.9354825 4.6475195,4.010253 5.3642642,3.9275445 5.3949928,4.0660748 5.4451828,4.2939711 4.4024589,4.374375 4.1369125,4.4412076 4.0301306,4.4173937 3.4181192,5.3435748 3.4181192,5.3435748 3.4035232,5.3991406 5.417015,5.1791821 5.0034592,5.5348541 4.8720944,5.6477781 3.5036472,5.7463625 3.0053316,5.9051217 2.9577026,5.9207416 2.6347959,6.4057256 2.6527209,6.4346607 3.9118255,7.098377 5.3550457,6.3604024 5.8249372,5.300044 M 7.9044956,3.9825981 c 0,2.1657838 -1.7558837,3.9216102 -3.9214822,3.9216102 -2.1655984,0 -3.92173824,-1.7558264 -3.92173824,-3.9216102 0,-2.1657838 1.75588374,-3.92161022 3.92173824,-3.92161022 2.1658546,0 3.9214822,1.75582642 3.9214822,3.92161022"
       id="path3690" /><path
       style="color:#000000;fill:#ffffff;stroke-linecap:round;-inkscape-stroke:none"
       d="M 3.9824219,0 C 1.783453,0 0,1.7835215 0,3.9824219 c 0,2.1989052 1.7837052,3.9824218 3.9824219,3.9824218 2.1987168,0 3.9824218,-1.7835215 3.9824218,-3.9824218 0,-0.00825 -0.00386,-0.015197 -0.00391,-0.023437 a 0.06127516,0.06127516 0 0 0 -0.00195,-0.00195 C 7.9443824,1.7706121 6.172339,0 3.9824219,0 Z m 0,0.12304687 c 2.1327359,0 3.8613281,1.72670723 3.8613281,3.85937503 0,2.1326629 -1.7288523,3.8613281 -3.8613281,3.8613281 -2.1324758,0 -3.85937502,-1.72867 -3.85937503,-3.8613281 0,-2.1326629 1.72663923,-3.85937503 3.85937503,-3.85937503 z M 5.9492187,1.703125 C 4.5600189,1.5154295 2.8650488,1.9375788 2.0390625,2.7519531 1.623101,3.1620669 1.4174662,3.7673628 1.3964844,4.3515625 1.3755025,4.9357622 1.5362102,5.5036929 1.8789062,5.8457031 l 0.019531,0.017578 h 0.025391 c 0.042343,10e-8 0.049925,-0.01597 0.068359,-0.029297 0.018435,-0.013327 0.038825,-0.028726 0.060547,-0.048828 0.043443,-0.040205 0.094734,-0.092764 0.1445312,-0.1484375 0.049797,-0.055673 0.098271,-0.1147788 0.1367188,-0.1660156 0.038448,-0.051237 0.065792,-0.086276 0.078125,-0.1347656 0.024266,-0.098784 0.022959,-0.2607346 0.017578,-0.4648438 -0.00538,-0.2041091 -0.017461,-0.4448546 -0.025391,-0.6777343 -0.00793,-0.2328797 -0.011715,-0.4586665 0,-0.6269531 0.00586,-0.084143 0.016079,-0.1542946 0.029297,-0.2011719 0.012326,-0.043712 0.028105,-0.054699 0.025391,-0.054687 0.00225,0.00152 0.00403,0.00291 0.00977,0.00977 0.016056,0.019194 0.03817,0.061009 0.058594,0.1171875 0.040847,0.1123578 0.079586,0.2812944 0.1113281,0.4648438 0.063484,0.3670986 0.1047437,0.7952398 0.1230469,0.9863281 l 0.011719,0.125 0.091797,-0.087891 C 3.2197587,4.5826875 3.6835938,4.0253906 3.6835938,4.0253906 l 0.00586,-0.00781 0.00391,-0.00977 c 0.013422,-0.033941 0.012796,-0.064609 0.013672,-0.1074219 8.757e-4,-0.042813 8.203e-4,-0.09476 -0.00195,-0.1523437 -0.00555,-0.1151683 -0.017361,-0.2548863 -0.023437,-0.3945313 -0.00608,-0.139645 -0.00692,-0.2796686 0.00391,-0.3886718 0.010828,-0.1090033 0.042744,-0.1834956 0.058594,-0.1953125 0.015564,-0.011585 0.00756,-0.00806 0.011719,-0.00586 0.00415,0.00221 0.021054,0.019457 0.037109,0.050781 0.032111,0.062648 0.063469,0.1749391 0.087891,0.2929688 0.024422,0.1180297 0.042993,0.2419389 0.060547,0.3398437 0.00878,0.048952 0.016619,0.091938 0.025391,0.125 0.00439,0.016531 0.00921,0.030837 0.015625,0.044922 0.00321,0.00704 0.00703,0.013079 0.013672,0.021484 0.00332,0.0042 0.0076,0.00899 0.013672,0.013672 0.00304,0.00234 0.00929,0.00756 0.00977,0.00781 4.795e-4,2.475e-4 0.015145,0.00378 0.015625,0.00391 0.00165,5.259e-4 0.00265,0.00169 0.00391,0.00195 0.00541,0.00114 0.011041,0.00195 0.015625,0.00195 0.00917,1.15e-5 0.015215,-0.00212 0.021484,-0.00391 0.012539,-0.00357 0.022393,-0.00838 0.03125,-0.013672 0.017714,-0.010594 0.035185,-0.024129 0.054687,-0.041016 0.039006,-0.033773 0.085214,-0.081435 0.140625,-0.1386719 C 4.4135558,3.3562304 4.5552537,3.2043976 4.6972656,3.0566406 4.8392775,2.9088837 4.9828508,2.7648985 5.0976562,2.6738281 c 0.057403,-0.045535 0.107593,-0.076649 0.140625,-0.089844 0.014573,-0.00582 0.022883,-0.00761 0.027344,-0.00781 0.00889,0.011733 0.014965,0.026331 0.00977,0.058594 -0.00554,0.034359 -0.023466,0.082337 -0.052734,0.1367188 C 5.1641206,2.8802479 5.0632978,3.0153314 4.9511719,3.1542969 4.839046,3.2932624 4.7163195,3.4376444 4.6113281,3.5683594 4.5063367,3.6990744 4.4200673,3.8142342 4.3789062,3.9121094 l -0.025391,0.060547 0.060547,0.021484 c 0.066682,0.02343 0.154399,0.030135 0.2539062,0.035156 0.099507,0.00502 0.2085257,0.0068 0.3125,0.00977 0.1039744,0.00297 0.2029613,0.00772 0.2714844,0.019531 0.034262,0.0059 0.060064,0.012661 0.074219,0.019531 0.014155,0.00687 0.011517,0.00985 0.00977,0.00195 0.0014,0.00636 0.00131,0.00655 -0.013672,0.021484 -0.014986,0.014931 -0.046413,0.03413 -0.089844,0.052734 -0.086862,0.037209 -0.2174484,0.071509 -0.359375,0.099609 -0.2838532,0.0562 -0.6064112,0.090323 -0.7519532,0.1269532 h 0.029297 c -0.030298,-0.00676 -0.051597,0.00285 -0.068359,0.011719 -0.016762,0.00887 -0.031303,0.019889 -0.046875,0.033203 C 4.0040131,4.4524092 3.9708829,4.4882493 3.9335938,4.53125 3.8590155,4.6172515 3.7712085,4.7326393 3.6875,4.8476562 3.520083,5.0776901 3.3671875,5.3105469 3.3671875,5.3105469 l -0.00586,0.00781 -0.00195,0.00977 c -1.14e-4,4.341e-4 -1.314e-4,0.034755 0,0.035156 1.314e-4,4.009e-4 0.015252,0.025022 0.015625,0.025391 3.726e-4,3.684e-4 0.011399,0.00938 0.015625,0.011719 0.00423,0.00234 0.00858,0.00472 0.011719,0.00586 0.012564,0.00457 0.020023,0.00484 0.029297,0.00586 0.018547,0.00205 0.038959,0.00195 0.066406,0.00195 0.054894,-2.1e-6 0.1323477,-0.00223 0.2226562,-0.00586 0.1806172,-0.00726 0.4173833,-0.017752 0.640625,-0.019531 0.2232418,-0.00178 0.4344388,0.00574 0.5527344,0.033203 0.055222,0.012818 0.078469,0.033873 0.080078,0.033203 -0.00379,0.00648 -0.012358,0.016955 -0.03125,0.033203 0.00185,-0.00159 -0.03019,0.016305 -0.078125,0.029297 -0.047935,0.012992 -0.1131433,0.027387 -0.1894531,0.041016 -0.1526195,0.027258 -0.3521203,0.054685 -0.5625,0.083984 -0.4207593,0.058598 -0.8853645,0.1218875 -1.1464844,0.2050781 -0.020411,0.00669 -0.025525,0.012717 -0.033203,0.019531 -0.00768,0.00681 -0.015802,0.014967 -0.023437,0.023437 -0.015272,0.016941 -0.031823,0.037638 -0.050781,0.0625 -0.037916,0.049723 -0.082205,0.1134627 -0.125,0.1777344 -0.042795,0.064272 -0.083669,0.1279567 -0.1132813,0.1796875 -0.014806,0.025865 -0.026445,0.048946 -0.035156,0.068359 -0.00436,0.00971 -0.00886,0.018723 -0.011719,0.029297 -0.00143,0.00529 -0.00349,0.011001 -0.00391,0.019531 -2.094e-4,0.00426 0.00184,0.014954 0.00195,0.015625 1.16e-4,6.712e-4 0.00949,0.022985 0.00977,0.023437 l 0.00781,0.013672 0.015625,0.00781 c 1.2927645,0.6814596 2.7714063,-0.070844 3.2558594,-1.1640625 0.00413,-0.00931 0.00182,-0.021883 0.00586,-0.03125 C 6.3525385,4.2139681 6.2843369,2.7506488 6,1.7480469 l -0.011719,-0.039063 z m -0.0625,0.125 c 0.2701215,0.9853976 0.3369775,2.4226437 -0.1171875,3.4472656 -0.4480497,1.0110703 -1.818023,1.700241 -3.0292968,1.1074219 0.00224,-0.00401 0.00342,-0.0055 0.00586,-0.00977 0.027379,-0.04783 0.06773,-0.1112846 0.109375,-0.1738282 0.041644,-0.062544 0.085629,-0.1253664 0.1210937,-0.171875 0.017732,-0.023254 0.033488,-0.042004 0.044922,-0.054687 0.00484,-0.00537 0.00723,-0.00934 0.00977,-0.011719 0.2387403,-0.074902 0.7012114,-0.139062 1.1191406,-0.1972656 0.2104418,-0.029308 0.4099235,-0.05799 0.5664063,-0.085937 0.078241,-0.013974 0.1452267,-0.026382 0.1992187,-0.041016 0.053992,-0.014634 0.092264,-0.024868 0.1269531,-0.054687 C 5.0728833,5.5563037 5.0956204,5.5309472 5.109375,5.5 5.1231296,5.4690528 5.1240734,5.4268065 5.1074219,5.3964844 5.0741188,5.3358401 5.0126388,5.3192686 4.9414062,5.3027344 4.7989411,5.2696659 4.5859868,5.2638191 4.359375,5.265625 c -0.2266118,0.00181 -0.4646478,0.012296 -0.6445312,0.019531 -0.076987,0.0031 -0.1361275,0.00524 -0.1855469,0.00586 0.04266,-0.063885 0.1237238,-0.1868536 0.2578125,-0.3710937 0.082642,-0.1135514 0.1680751,-0.2276341 0.2382812,-0.3085938 0.035103,-0.04048 0.067079,-0.072332 0.089844,-0.091797 0.010381,-0.00888 0.018998,-0.013051 0.023437,-0.015625 L 4.1523437,4.5 C 4.272348,4.4697974 4.6051371,4.4326839 4.8964844,4.375 5.042158,4.346158 5.1784188,4.3116286 5.28125,4.2675781 5.3326656,4.2455529 5.3766873,4.2208476 5.4101562,4.1875 5.4436252,4.1541524 5.4662257,4.103352 5.4550781,4.0527344 5.4456445,4.010206 5.4126145,3.9841638 5.3808594,3.96875 5.3491043,3.9533362 5.3120637,3.9444919 5.2714844,3.9375 5.1903257,3.9235163 5.0900271,3.9190323 4.984375,3.9160156 4.8787229,3.9129989 4.7695193,3.9110789 4.6738281,3.90625 4.6149026,3.9032764 4.5811794,3.8953698 4.5390625,3.8886719 4.5792241,3.8194952 4.6270955,3.7440518 4.7070312,3.6445313 4.8100579,3.5162624 4.9330498,3.3734934 5.046875,3.2324219 5.1607002,3.0913503 5.264011,2.9528356 5.3300781,2.8300781 5.3631117,2.7686994 5.3874225,2.7105256 5.3964844,2.6542969 5.4055462,2.5980682 5.3972639,2.5388986 5.359375,2.4941406 5.338585,2.4695834 5.306884,2.4547764 5.2773437,2.453125 c -0.02954,-0.00165 -0.057048,0.00682 -0.083984,0.017578 C 5.1394872,2.4922221 5.083603,2.5288488 5.0214844,2.578125 4.8972471,2.6766773 4.7508017,2.8215229 4.6074219,2.9707031 4.4640421,3.1198833 4.3236035,3.2743756 4.2148437,3.3867188 4.1604639,3.4428903 4.1153337,3.488743 4.0820312,3.5175781 4.0761801,3.4924354 4.0693412,3.463938 4.0625,3.4257813 4.0453557,3.3301584 4.025256,3.2040927 4,3.0820313 3.974744,2.9599698 3.9459018,2.8427931 3.9023438,2.7578125 3.8805647,2.7153222 3.854743,2.6786759 3.8125,2.65625 3.770257,2.6338241 3.7106933,2.6415291 3.6699219,2.671875 3.5916656,2.7302193 3.5744387,2.8329358 3.5625,2.953125 c -0.011939,0.1201892 -0.00814,0.2622085 -0.00195,0.4042969 0.00618,0.1420884 0.01606,0.2838685 0.021484,0.3964844 0.00271,0.056308 0.00468,0.1049529 0.00391,0.1425781 -6.804e-4,0.033259 -0.00684,0.053143 -0.00781,0.058594 -0.0093,0.011173 -0.3920998,0.4583811 -0.7128906,0.7871094 C 2.8439973,4.5256826 2.8156871,4.2042272 2.7597656,3.8808594 2.7274258,3.6938534 2.6884592,3.5207362 2.6425781,3.3945313 2.6196376,3.3314288 2.59544,3.2796122 2.5625,3.2402344 2.54603,3.2205455 2.5276164,3.2039055 2.5019531,3.1933594 c -0.025663,-0.010546 -0.059068,-0.010143 -0.085937,0 -0.060731,0.022925 -0.082332,0.077399 -0.099609,0.1386719 -0.017278,0.061273 -0.02703,0.1378792 -0.033203,0.2265625 -0.012347,0.1773665 -0.00798,0.4043644 0,0.6386718 0.00798,0.2343074 0.020073,0.4760155 0.025391,0.6777344 0.00532,0.2017189 -2.004e-4,0.3688494 -0.015625,0.4316406 0.00107,-0.00419 -0.021196,0.042608 -0.056641,0.089844 -0.035445,0.047235 -0.08303,0.1047296 -0.1308593,0.1582031 -0.04783,0.053473 -0.097691,0.104507 -0.1367188,0.140625 -0.00737,0.00682 -0.011041,0.00997 -0.017578,0.015625 C 1.6640831,5.3992395 1.4982218,4.8944077 1.5175781,4.3554687 1.5376317,3.7971149 1.7376654,3.2217331 2.125,2.8398438 2.8973154,2.0783858 4.5431129,1.6603056 5.8867187,1.828125 Z"
       id="path3692" /></g></svg>

<svg xmlns="http://www.w3.org/2000/svg" viewBox="0 0 7.966 7.966"><path d="M5.825 5.3c.47-1.06.398-2.538.115-3.536-1.37-.185-3.055.24-3.859 1.033s-.809 2.356-.158 3.005c.057 0 .408-.392.43-.48.08-.324-.133-1.99.085-2.072s.348 1.25.384 1.632c.35-.339.814-.897.814-.897.053-.134-.117-1.124.071-1.264.226-.168.281.869.343.884.083.042 1.102-1.262 1.263-1.071.192.226-.737 1.065-.878 1.401.213.075.93-.007.96.131.05.228-.993.308-1.258.375-.107-.024-.719.903-.719.903-.014.055 1.999-.165 1.585.19-.13.114-1.5.212-1.998.371-.047.016-.37.5-.352.53 1.259.663 2.702-.075 3.172-1.135m2.08-1.317a3.922 3.922 0 1 1-7.844 0 3.922 3.922 0 0 1 7.843 0"/><path d="M3.982 0a3.983 3.983 0 1 0 3.983 3.982q-.002-.011-.004-.023l-.002-.002A3.98 3.98 0 0 0 3.982 0m0 .123a3.86 3.86 0 1 1 0 7.72 3.86 3.86 0 0 1-3.859-3.86 3.86 3.86 0 0 1 3.86-3.86m1.967 1.58c-1.389-.188-3.084.235-3.91 1.049-.416.41-.622 1.015-.643 1.6-.02.584.14 1.152.483 1.494l.02.017h.025c.042 0 .05-.016.068-.029a1 1 0 0 0 .06-.049 2.3 2.3 0 0 0 .282-.314c.038-.052.066-.087.078-.135.024-.099.023-.26.018-.465-.006-.204-.018-.445-.026-.678a7 7 0 0 1 0-.627c.006-.084.016-.154.03-.2.012-.044.028-.055.025-.055l.01.01c.016.019.038.06.058.117.041.112.08.28.112.464.063.367.104.796.123.987l.011.125.092-.088c.355-.343.819-.9.819-.9l.005-.008.004-.01c.014-.034.013-.065.014-.108q0-.064-.002-.152c-.005-.115-.017-.255-.023-.394-.006-.14-.007-.28.004-.39.01-.108.042-.183.058-.194s.008-.009.012-.006.02.02.037.05c.032.063.063.175.088.293s.043.242.06.34q.014.075.026.125.006.025.015.045a.1.1 0 0 0 .028.035l.01.008.015.004.004.002.016.002q.013 0 .021-.004a.1.1 0 0 0 .031-.014.4.4 0 0 0 .055-.04q.059-.052.14-.14c.112-.114.253-.266.395-.413.142-.148.286-.292.4-.383a.6.6 0 0 1 .141-.09.1.1 0 0 1 .028-.008c.009.012.015.027.01.059a.5.5 0 0 1-.053.136c-.059.11-.16.244-.272.383-.112.14-.235.284-.34.414a1.7 1.7 0 0 0-.232.344l-.025.06.06.022a1 1 0 0 0 .254.035c.1.005.208.007.312.01s.203.008.272.02q.052.008.074.02c.014.006.012.009.01.001.001.006.001.007-.014.022a.3.3 0 0 1-.09.052 2 2 0 0 1-.359.1c-.284.056-.606.09-.752.127h.03a.1.1 0 0 0-.069.012.3.3 0 0 0-.047.033 1 1 0 0 0-.101.105 5 5 0 0 0-.247.317c-.167.23-.32.463-.32.463l-.006.007-.002.01v.035l.016.026s.011.01.016.011l.011.006c.013.005.02.005.03.006q.026.003.066.002c.055 0 .132-.002.223-.006.18-.007.417-.018.64-.02.224-.001.435.006.553.034.055.013.079.034.08.033a.2.2 0 0 1-.031.033c.002-.001-.03.017-.078.03a2 2 0 0 1-.19.04c-.152.028-.352.055-.562.085-.42.058-.886.121-1.147.205-.02.006-.025.012-.033.02l-.023.023-.051.062a4 4 0 0 0-.274.426l-.011.03q-.003.006-.004.019l.002.015.01.024.007.013.016.008c1.293.682 2.771-.07 3.256-1.164.004-.01.002-.022.006-.031.466-1.079.397-2.542.113-3.545l-.012-.039zm-.062.125c.27.986.337 2.423-.117 3.447-.449 1.011-1.818 1.7-3.03 1.108l.006-.01a3 3 0 0 1 .275-.4l.01-.012c.239-.075.701-.14 1.12-.197.21-.03.41-.058.566-.086q.117-.02.199-.041c.054-.015.092-.025.127-.055a.24.24 0 0 0 .066-.082.12.12 0 0 0-.002-.104c-.033-.06-.094-.077-.166-.093a2.8 2.8 0 0 0-.582-.037c-.226.001-.464.012-.644.02l-.186.005c.043-.064.124-.187.258-.371a5 5 0 0 1 .238-.309 1 1 0 0 1 .09-.091q.016-.014.024-.016l.013-.004c.12-.03.453-.067.744-.125.146-.029.282-.063.385-.107a.4.4 0 0 0 .13-.08.15.15 0 0 0 .044-.135c-.01-.043-.042-.069-.074-.084a.4.4 0 0 0-.11-.031 2 2 0 0 0-.287-.022c-.105-.003-.214-.005-.31-.01-.06-.003-.093-.01-.135-.017.04-.07.088-.145.168-.244.103-.129.226-.272.34-.413s.217-.28.283-.402a.6.6 0 0 0 .066-.176.2.2 0 0 0-.037-.16.12.12 0 0 0-.082-.04.2.2 0 0 0-.084.017.7.7 0 0 0-.172.107 5 5 0 0 0-.414.393c-.143.149-.283.303-.392.416a2 2 0 0 1-.133.13q-.01-.036-.02-.091c-.017-.096-.037-.222-.062-.344a1.4 1.4 0 0 0-.098-.324.22.22 0 0 0-.09-.102.14.14 0 0 0-.142.016c-.078.058-.096.16-.107.281-.012.12-.009.262-.002.404s.016.284.021.397q.005.085.004.142c0 .034-.007.054-.008.06-.01.01-.392.457-.713.786-.021-.216-.05-.538-.105-.861a3 3 0 0 0-.117-.486.5.5 0 0 0-.08-.155.15.15 0 0 0-.061-.047.12.12 0 0 0-.086 0c-.06.023-.082.078-.1.139a1 1 0 0 0-.033.227 7 7 0 0 0 0 .638c.008.235.02.476.026.678s0 .369-.016.432c.001-.005-.021.042-.057.09a2.5 2.5 0 0 1-.267.298l-.018.016c-.287-.312-.453-.817-.433-1.356.02-.558.22-1.133.607-1.515.772-.762 2.418-1.18 3.762-1.012"/></svg>
